images/icons/instagram.svg

<svg width="17" height="16" viewBox="0 0 17 16" fill="none" xmlns="http://www.w3.org/2000/svg">
<path fill-rule="evenodd" clip-rule="evenodd" d="M8.4347 3.83875C6.17663 3.83875 4.30566 5.67745 4.30566 7.96778C4.30566 10.2581 6.14437 12.0968 8.4347 12.0968C10.725 12.0968 12.5637 10.2258 12.5637 7.96778C12.5637 5.70971 10.6928 3.83875 8.4347 3.83875ZM8.4347 10.6129C6.98308 10.6129 5.78954 9.41939 5.78954 7.96778C5.78954 6.51616 6.98308 5.32262 8.4347 5.32262C9.88631 5.32262 11.0799 6.51616 11.0799 7.96778C11.0799 9.41939 9.88631 10.6129 8.4347 10.6129Z" fill="#346275"/>
<path d="M12.725 4.67736C13.2417 4.67736 13.6605 4.25853 13.6605 3.74188C13.6605 3.22523 13.2417 2.8064 12.725 2.8064C12.2084 2.8064 11.7896 3.22523 11.7896 3.74188C11.7896 4.25853 12.2084 4.67736 12.725 4.67736Z" fill="#346275"/>
<path fill-rule="evenodd" clip-rule="evenodd" d="M15.1444 1.32258C14.3057 0.451613 13.1121 0 11.7573 0H5.11211C2.30566 0 0.434692 1.87097 0.434692 4.67742V11.2903C0.434692 12.6774 0.886305 13.871 1.78953 14.7419C2.6605 15.5806 3.82179 16 5.14437 16H11.725C13.1121 16 14.2734 15.5484 15.1121 14.7419C15.9831 13.9032 16.4347 12.7097 16.4347 11.3226V4.67742C16.4347 3.32258 15.9831 2.16129 15.1444 1.32258ZM14.9508 11.3226C14.9508 12.3226 14.6605 13.129 14.0799 13.6774C13.4992 14.2258 12.6928 14.5161 11.725 14.5161H5.14437C4.17663 14.5161 3.37018 14.2258 2.78953 13.6774C2.20889 13.0968 1.91856 12.2903 1.91856 11.2903V4.67742C1.91856 3.70968 2.20889 2.90323 2.78953 2.32258C3.33792 1.77419 4.17663 1.48387 5.14437 1.48387H11.7895C12.7573 1.48387 13.5637 1.77419 14.1444 2.35484C14.6928 2.93548 15.0153 3.74194 15.0153 4.67742V11.3226H14.9508Z" fill="#346275"/>
</svg>

<?xml version="1.0" encoding="utf-8"?>
<!-- Generator: Adobe Illustrator 24.1.2, SVG Export Plug-In . SVG Version: 6.00 Build 0)  -->
<svg version="1.1" id="Layer_1" xmlns="http://www.w3.org/2000/svg" xmlns:xlink="http://www.w3.org/1999/xlink" x="0px" y="0px"
	 viewBox="0 0 17 16" style="enable-background:new 0 0 17 16;" xml:space="preserve">
<style type="text/css">
	.st0{fill-rule:evenodd;clip-rule:evenodd;fill:#FCF5A3;}
	.st1{fill:#FCF5A3;}
</style>
<path class="st0" d="M8.4,3.8C6.2,3.8,4.3,5.7,4.3,8c0,2.3,1.8,4.1,4.1,4.1c2.3,0,4.1-1.9,4.1-4.1C12.6,5.7,10.7,3.8,8.4,3.8z
	 M8.4,10.6C7,10.6,5.8,9.4,5.8,8c0-1.5,1.2-2.6,2.6-2.6c1.5,0,2.6,1.2,2.6,2.6C11.1,9.4,9.9,10.6,8.4,10.6z"/>
<path class="st1" d="M12.7,4.7c0.5,0,0.9-0.4,0.9-0.9s-0.4-0.9-0.9-0.9c-0.5,0-0.9,0.4-0.9,0.9S12.2,4.7,12.7,4.7z"/>
<path class="st0" d="M15.1,1.3c-0.8-0.9-2-1.3-3.4-1.3H5.1C2.3,0,0.4,1.9,0.4,4.7v6.6c0,1.4,0.5,2.6,1.4,3.5c0.9,0.8,2,1.3,3.4,1.3
	h6.6c1.4,0,2.5-0.5,3.4-1.3c0.9-0.8,1.3-2,1.3-3.4V4.7C16.4,3.3,16,2.2,15.1,1.3z M15,11.3c0,1-0.3,1.8-0.9,2.4
	c-0.6,0.5-1.4,0.8-2.4,0.8H5.1c-1,0-1.8-0.3-2.4-0.8c-0.6-0.6-0.9-1.4-0.9-2.4V4.7c0-1,0.3-1.8,0.9-2.4c0.5-0.5,1.4-0.8,2.4-0.8h6.6
	c1,0,1.8,0.3,2.4,0.9C14.7,2.9,15,3.7,15,4.7L15,11.3L15,11.3z"/>
</svg>
